X:630
%%etbk:tnset id:372,pos:2,rep:3x,ant:
%%etbk:wsite https://thesession.org/tunes/774
%%etbk:pldat 2016-01-23T14:34,2015-11-26T18:39,2015-09-09T17:08,2015-09-03T17:17,2015-08-10T19:28,2015-08-06T16:31,2015-08-04T17:31,2015-05-28T18:00,2015-05-26T17:52,2015-04-23T17:56,2015-04-21T15:58,2015-04-15T16:55,2015-04-12T09:43,2015-03-18T15:59,2015-03-04T17:59,2015-02-22T13:37,2015-02-18T16:45,2015-02-14T12:27,2015-02-12T19:37,2015-02-10T18:17,2015-02-06T17:51,2015-02-03T15:12,2015-02-02T18:14
T: Mickey Callaghan's Fancy
Z: Piano Box Version by Martin Fleischmann
H: Created 2015-02-02 /  Last Modified 2015-02-02
R: hornpipe
M: 4/4
L: 1/8
K:Fmaj
|:!3!F!2!D!1!CD FG!5!AG|FDCD !1!FGA!4!c|-cAdA cAFA|!2!G3A G!1!F!2!D2|
!3!FDCD FGAG|FDCD FGAc|-cAdA cAFA|!2!G2!1!F2 F4:|:
!3!A!4!c|:!5!d3d dcBd| !4!c3d cA!1!F2| !4!B3B A2!2!G!1!F|!2!D!4!GG!5!A !4!GF!2!D2|
FDCD FGAG|FDCD FGAc|cAdA cAFA|G2F2 F4:|


